!!!!SEGMENT: pl-cz--iii-349--006_koperski-maksymilian--msza-b-sanctus.krn
!!!cenid: 18xx:892
!!!COM: Koperski, Maksymilian
!!!COM-rismID: pe30060120
!!!CDT: 1812-1886
!!!CNT:
!!!OPR: Msza B
!!!OTL: Sanctus
!!!OMV: 006
!!!PDT: 1834
!!!AGN: Sacred; Mass
!!!SMS-siglum: PL-CZ
!!!SMS-shelfmark: III-349
!!!SMS-shelfwork: 001-006 M
!!!SMS-variant:
!!!SMS-altvar:
!!!NIFC-rismSourceID: 300000599
!!!NIFC-rismChildID: 300000599
!!!NIFC-islandoraID: pl-cz:37819
!!!URL-pdf-islandora: https://repozytorium.nifc.pl/islandora/object/pl-cz%3A37819/datastream/PDF/view
!!!URL-scan: https://polish.musicsources.pl/pl/lokalizacje/galeria/rekopisy/6910/1 @EN{Scan on Polish Music Sources Website} @PL{Skany w portalu Dziedzictwo Muzyki Polskiej w otwartym dostępie}
!!!ONB-nifc: UWAGA: części Mszy: Kyrie, Gloria, Credo, Et incarnatus, Et resurrexit, Sanctus, Pleni, Benedictus, Agnus Dei
!!!AIN: 1 alto 1 bass 2 clars 2 clrno 1 fagot 1 flt 1 organ 1 soprn 1 tenor 1 timpa 1 viola 2 violn
!!!key: B-
**kern	**fba	**dynam	**kern	**dynam	**kern	**dynam	**kern	**dynam	**kern	**text	**dynam	**kern	**text	**dynam	**kern	**text	**kern	**text	**dynam	**kern	**dynam	**kern	**dynam	**kern	**dynam	**kern	**dynam	**kern	**dynam	**kern	**dynam	**kern
*part15	*part15	*part15	*part14	*part14	*part13	*part13	*part12	*part12	*part11	*part11	*part11	*part10	*part10	*part10	*part9	*part9	*part8	*part8	*part8	*part7	*part7	*part6	*part6	*part5	*part5	*part4	*part4	*part3	*part3	*part2	*part2	*part1
*staff15	*	*	*staff14	*	*staff13	*	*staff12	*	*staff11	*staff11	*	*staff10	*staff10	*	*staff9	*staff9	*staff8	*staff8	*	*staff7	*	*staff6	*	*staff5	*	*staff4	*	*staff3	*	*staff2	*	*staff1
*I"Organo	*	*	*I"Alto Viola	*	*I"Violino 2do	*	*I"Violino 1mo	*	*I"Basso	*	*	*I"Tenore	*	*	*I"Alto	*	*I"Canto	*	*	*I"Tympano in B C.G.	*	*I"Clarino 2do in B♭	*	*I"Clarino 1mo in B♭	*	*I"Fagotto 1mo	*	*I"Clarinetto 2do in B♭	*	*I"Clarinetto 1mo in B♭	*	*I"Flauto
*I'org	*	*	*I'a-vla	*	*I'vl II	*	*I'vl I	*	*I'B	*	*	*I'T	*	*	*I'A	*	*I'S	*	*	*I'timp	*	*I'clno II	*	*I'clno I	*	*I'fag	*	*I'cl II	*	*I'cl I	*	*I'fl
*ICklav	*	*	*ICstr	*	*ICstr	*	*ICstr	*	*ICvox	*	*	*ICvox	*	*	*ICvox	*	*ICvox	*	*	*ICidio	*	*ICbras	*	*ICbras	*	*ICww	*	*ICww	*	*ICww	*	*ICww
*Iorgan	*	*	*Iviola	*	*Ivioln	*	*Ivioln	*	*Ibass	*	*	*Itenor	*	*	*Ialto	*	*Isoprn	*	*	*Itimpa	*	*Iclrno	*	*Iclrno	*	*Ifagot	*	*Iclars	*	*Iclars	*	*Iflt
*clefF4	*	*	*clefC3	*	*clefG2	*	*clefG2	*	*clefF4	*	*	*clefC4	*	*	*clefC3	*	*clefC1	*	*	*clefF4	*	*clefG2	*	*clefG2	*	*clefF4	*	*clefG2	*	*clefG2	*	*clefG2
*B-:	*	*	*B-:	*	*B-:	*	*B-:	*	*B-:	*	*	*B-:	*	*	*B-:	*	*B-:	*	*	*B-:	*	*B-:	*	*B-:	*	*B-:	*	*B-:	*	*B-:	*	*B-:
*	*	*	*	*	*	*	*	*	*	*	*	*	*	*	*	*	*	*	*	*ITrd1c2	*	*ITrd1c2	*	*ITrd1c2	*	*	*	*ITrd1c2	*	*ITrd1c2	*	*
*k[b-e-]	*	*	*k[b-e-]	*	*k[b-e-]	*	*k[b-e-]	*	*k[b-e-]	*	*	*k[b-e-]	*	*	*k[b-e-]	*	*k[b-e-]	*	*	*k[b-e-]	*	*k[b-e-]	*	*k[b-e-]	*	*k[b-e-]	*	*k[b-e-]	*	*k[b-e-]	*	*k[b-e-]
*M3/4	*	*	*M3/4	*	*M3/4	*	*M3/4	*	*M3/4	*	*	*M3/4	*	*	*M3/4	*	*M3/4	*	*	*M3/4	*	*M3/4	*	*M3/4	*	*M3/4	*	*M3/4	*	*M3/4	*	*M3/4
=1	=1	=1	=1	=1	=1	=1	=1	=1	=1	=1	=1	=1	=1	=1	=1	=1	=1	=1	=1	=1	=1	=1	=1	=1	=1	=1	=1	=1	=1	=1	=1	=1
!!LO:TX:t=P:problem:all\right	!	!	!	!	!	!	!	!	!	!	!	!	!	!	!	!	!	!	!	!	!	!	!	!	!	!	!	!	!	!
!	!	!	!	!	!	!	!LO:TX:a:B:t=Adagio	!	!	!	!	!	!	!	!	!	!	!	!	!LO:TX:a:t=1	!	!LO:TX:a:t=1	!	!LO:TX:a:t=1	!	!	!	!	!	!LO:TX:a:B:t=Adagio	!	!
!LO:TX:a:B:t=Adagio	!	!	!LO:TX:a:t=1	!	!LO:TX:a:B:t=Adagio	!	!LO:TX:a:t=1	!	!LO:TX:a:B:t=Adagio	!	!	!LO:TX:a:B:t=Adagio	!	!	!	!	!LO:TX:a:B:t=Adagio	!	!	!LO:TX:a:B:t=Adagio	!	!LO:TX:a:B:t=Adagio	!	!LO:TX:a:B:t=Adagio	!	!LO:TX:a:B:t=Adagio	!	!LO:TX:a:B:t=Adagio	!	!LO:TX:a:t=1	!	!LO:TX:a:B:t=Adagio
!	!	!	!	!	!	!	!	!	!	!	!	!	!	!	!	!	!	!	!LO:DY:b	!	!	!	!	!	!	!	!	!	!	!	!	!
!	!	!	!LO:TX:a:B:t=Adagio	!	!	!	!	!	!	!	!LO:DY:b	!	!	!LO:DY:b	!LO:TX:b:B:t=Adagio	!	!	!	!	!	!	!	!	!	!	!	!	!	!	!	!	!
2.r	.	.	2.r	.	2.r	.	2.r	.	(4B-\	San-	f <	2.f\	San-	f <	(4b-\	San-	(4dd\	San-	f	2.r	.	2.r	.	2.r	.	(4B-\	f	2.r	.	2.r	.	2.r
.	.	.	.	.	.	.	.	.	4A\	.	.	.	.	.	4a\	.	4cc\	.	.	.	.	.	.	.	.	4A\	.	.	.	.	.	.
.	.	.	.	.	.	.	.	.	4B-\)	.	[[	.	.	.	4b-\)	.	4dd\)	.	.	.	.	.	.	.	.	4B-\)	.	.	.	.	.	.
=2	=2	=2	=2	=2	=2	=2	=2	=2	=2	=2	=2	=2	=2	=2	=2	=2	=2	=2	=2	=2	=2	=2	=2	=2	=2	=2	=2	=2	=2	=2	=2	=2
!	!	!	!	!	!	!	!	!	!	!	!	!	!	!	!	!	!	!	!LO:DY:a	!	!	!	!	!	!	!	!	!	!	!	!	!
4r	.	.	4r	.	4r	.	4r	.	4A\	-ctus	.	4f\	-ctus	.	4cc\	-ctus	4ee-^\	-ctus	>	4r	.	4r	.	4r	.	4f\	.	4r	.	4r	.	4r
4r	.	.	4r	.	4r	f	4r	.	4r	.	.	4r	.	[	4r	.	4r	.	]	4r	.	4r	.	4r	.	4r	.	4r	.	4r	.	4r
!	!	!	!	!	!	!	!	!LO:DY:t=fo	!	!	!	!	!	!	!	!	!	!	!	!	!	!	!	!	!LO:DY:t=for	!	!	!	!	!	!	!
4F;\	.	f	4f^<;\	.	4f^>;/ 4a	.	4ff^;\ 4fff	f	4r;	.	.	4r;	.	.	4r;	.	4r;	.	.	4FFT^>;</	.	4f^>;</	.	4cc^<;\	f	4f;\	.	4cc;\	.	4ff^<;\	f	4fff;\
=3	=3	=3	=3	=3	=3	=3	=3	=3	=3	=3	=3	=3	=3	=3	=3	=3	=3	=3	=3	=3	=3	=3	=3	=3	=3	=3	=3	=3	=3	=3	=3	=3
!	!	!	!	!	!	!	!LO:TX:a:t=Trą&colon; Solo	!	!	!	!	!	!	!	!	!	!	!	!	!	!	!	!	!	!	!	!	!	!	!	!	!
!	!	!	!LO:TX:a:t=1	!	!	!	!LO:TX:a:t=1	!	!	!	!LO:DY:a	!	!	!LO:DY:a	!	!	!	!	!	!LO:TX:a:t=1	!	!LO:TX:a:t=1	!	!LO:TX:a:t=1	!	!	!	!LO:TX:a:t=1	!	!LO:TX:a:t=1	!	!LO:TX:a:t=1
*	*	*	*	*	*	*	*	*	*	*ij	*	*	*ij	*	*	*	*	*	*	*	*	*	*	*	*	*	*	*	*	*	*	*
2.r	.	.	2.r	.	2.r	.	2.r	.	2.A\	San-	<	2.f\	San-	<	2.cc\	San-	(4cc\	San-	.	2.r	.	2.r	.	2.r	.	(4f\	.	2.r	.	2.r	.	2.r
.	.	.	.	.	.	.	.	.	.	.	.	.	.	.	.	.	4ff\	.	.	.	.	.	.	.	.	4F\)	.	.	.	.	.	.
.	.	.	.	.	.	.	.	.	.	.	.	.	.	.	.	.	4ee-\)	.	.	.	.	.	.	.	.	4A\	.	.	.	.	.	.
=4	=4	=4	=4	=4	=4	=4	=4	=4	=4	=4	=4	=4	=4	=4	=4	=4	=4	=4	=4	=4	=4	=4	=4	=4	=4	=4	=4	=4	=4	=4	=4	=4
!	!	!	!	!	!	!	!	!	!	!	!	!	!	!	!	!	!	!	!LO:DY:a	!	!	!	!	!	!	!	!	!	!	!	!	!
4r	.	.	4r	.	4r	.	4r	.	4B-\	-ctus	.	4f\	-ctus	.	4b-\	-ctus	4dd^\	-ctus	>	4r	.	4r	.	4r	.	4B-\	.	4r	.	4r	.	4r
*	*	*	*	*	*	*	*	*	*	*Xij	*	*	*Xij	*	*	*	*	*	*	*	*	*	*	*	*	*	*	*	*	*	*	*
4r	.	.	4r	.	4r	.	4r	.	4r	.	[	4r	.	[	4r	.	4r	.	]	4r	.	4r	.	4r	.	4r	.	4r	.	4r	.	4r
4BB-;/	.	.	4B-^;/	.	4d^>;/ 4b-	.	4dd^;\ 4bb-	.	4r;	.	.	4r;	.	.	4r;	.	4r;	.	.	4BB-^T;/	.	4B-^>;</	.	4b-^<;\	.	4BB-;/	.	4dd;\	.	4ff^<;\	.	4bb-;\
=5	=5	=5	=5	=5	=5	=5	=5	=5	=5	=5	=5	=5	=5	=5	=5	=5	=5	=5	=5	=5	=5	=5	=5	=5	=5	=5	=5	=5	=5	=5	=5	=5
!	!	!	!LO:TX:a:t=1	!	!	!	!LO:TX:a:t=1	!	!	!	!	!	!	!	!	!	!	!	!LO:DY:a	!LO:TX:a:t=1	!	!LO:TX:a:t=1	!	!LO:TX:a:t=1	!	!	!	!	!	!	!	!LO:TX:a:t=1
2.r	.	.	2.r	.	2.r	.	2.r	.	4r	.	.	4r	.	.	4r	.	(4ff\	San-	>	2.r	.	2.r	.	2.r	.	4f\	.	2.r	.	2.r	.	2.r
.	.	.	.	.	.	.	.	.	4r	.	.	4r	.	.	4r	.	4aa-X\	.	.	.	.	.	.	.	.	4d\	.	.	.	.	.	.
.	.	.	.	.	.	.	.	.	(4Bn\	Do-	.	(4a-X\	Do-	.	4f\	Do-	4bn\)	-ctus	]	.	.	.	.	.	.	4Bn\	.	.	.	.	.	.
=6	=6	=6	=6	=6	=6	=6	=6	=6	=6	=6	=6	=6	=6	=6	=6	=6	=6	=6	=6	=6	=6	=6	=6	=6	=6	=6	=6	=6	=6	=6	=6	=6
!	!	!	!	!	!	!	!	!	!	!	!LO:DY:a	!	!	!LO:DY:a	!	!	!	!	!	!	!	!	!	!	!	!	!	!	!	!	!	!
4r	.	.	4r	.	4r	.	4r	.	8.c\)	.	<	8.g\)	.	>	(8.e-\	-mi-	8.cc\	Do-	.	4r	.	4r	.	4r	.	4c\	.	4r	.	4r	.	4r
.	.	.	.	.	.	.	.	.	16c\	-mi-	.	16f\	-mi-	.	16d\)	-nus	16dd\	-mi-	.	.	.	.	.	.	.	.	.	.	.	.	.	.
!	!	!	!	!	!	!	!	!	!	!	!	!	!	!	!	!	!	!	!LO:DY:a	!	!	!	!	!	!	!	!	!	!	!	!	!
4r	.	.	4r	.	4r	.	4r	.	4C/	-nus	[	4e-\	-nus	.	4c\	.	4ee-\	-nus	>	4r	.	4r	.	4r	.	4C/	.	4r	.	4r	.	4r
8.r;	.	.	8.r;	.	8.r;	.	8.r;	.	8.r;	.	.	8.r;	.	]	8.r;	.	8.r;	.	]	8.r;	.	8.r;	.	8.r;	.	8.r;	.	8.r;	.	8.r;	>	8.r;
16r	.	.	16r	.	16r	.	16r	.	16r	.	.	(16e-\	De-	.	(16c\	De-	[16gg\	De-	.	16r	.	16r	.	16r	.	16r	.	16r	.	16r	]]	16r
!	!	!	!	!	!LO:LB:g=original	!	!	!	!LO:LB:g=original	!	!	!LO:LB:g=original	!	!	!LO:LB:g=original	!	!LO:LB:g=original	!	!	!	!	!	!	!	!	!	!	!	!	!	!	!
=7	=7	=7	=7	=7	=7	=7	=7	=7	=7	=7	=7	=7	=7	=7	=7	=7	=7	=7	=7	=7	=7	=7	=7	=7	=7	=7	=7	=7	=7	=7	=7	=7
!	!	!	!	!	!	!	!	!	!	!	!	!	!	!LO:DY:a	!LO:TX:t=P:problem=zmazane caudy	!	!	!	!	!	!	!	!	!	!	!	!	!LO:TX:a:t=2	!	!LO:TX:a:t=1	!	!
4B-\	.	pp	4b-\	pp	8.d/L	.	8.b-\L	p	8.BB-/	De-	.	8f\)	.	<	8d\L)	.	4gg\]	.	.	4BB-/	p	4d/	p	4b-\	.	8.BB-/L	.	2.r	.	2.r	.	8.ddd\L
.	.	.	.	.	.	.	.	.	.	.	.	8f\	-us	.	8d\J	-us	.	.	.	.	.	.	.	.	.	.	.	.	.	.	.	.
.	.	.	.	.	16d/Jk	.	16b-\Jk	.	16D/	-us	.	.	.	.	.	.	.	.	.	.	.	.	.	.	.	16D/Jk	.	.	.	.	.	16ddd\Jk
4r	.	.	4r	.	4d/	.	4b-T\	.	4F\	sa-	.	4f\	sa-	.	4d\	sa-	8b-\	-us	.	8r	.	8r	.	8r	.	4F\	.	.	.	.	.	4ddd\
.	.	.	.	.	.	.	.	.	.	.	.	.	.	.	.	.	8b-\	sa-	.	8BB-/L	.	8d/L	.	8b-\L	p	.	.	.	.	.	.	.
4F\	.	.	4f\	.	8.f/L	.	8dd\L	.	4F\	-ba-	.	4f\	-ba-	[[	(8.f\L	-ba-	8.dd\L	-ba-	.	8FF/	.	8f/	.	8cc\	.	4F\	.	.	.	.	.	8.fff\L
.	.	.	.	.	.	.	8cc\J	.	.	.	.	.	.	.	.	.	.	.	.	8FF/J	.	8f/J	.	8cc\J	.	.	.	.	.	.	.	.
.	.	.	.	.	16e-/Jk	.	.	.	.	.	.	.	.	.	16e-\Jk)	.	16cc\Jk	.	.	.	.	.	.	.	.	.	.	.	.	.	.	16ccc\Jk
!	!	!	!	!	!	!	!	!	!	!	!	!	!	!	!	!	!	!	!	!LO:LB:g=original	!	!LO:LB:g=original	!	!LO:LB:g=original	!	!	!	!	!	!	!	!
=8	=8	=8	=8	=8	=8	=8	=8	=8	=8	=8	=8	=8	=8	=8	=8	=8	=8	=8	=8	=8	=8	=8	=8	=8	=8	=8	=8	=8	=8	=8	=8	=8
4BB-/	.	.	4B-/	.	4d/	.	4b-\	.	4B-\	-oth	.	4f\	-oth	.	4d\	-oth	4b-\	-oth	.	4BB-/	.	4d/	.	4b-\	.	4B-X\	.	2.r	.	4r	.	4ddd\
!	!	!	!	!	!	!	!	!	!	!	!	!	!	!	!	!	!	!	!	!	!	!	!	!	!	!LO:TX:a:i:t=dolc(e)	!	!	!	!	!	!
4r	.	.	4r	.	4r	.	4r	.	4r	.	.	4r	.	.	4r	.	4r	.	.	4r	.	4r	.	4r	.	8r	.	.	.	8r	.	8r
!	!	!	!	!	!	!	!	!	!	!	!	!	!	!	!	!	!	!	!	!	!	!	!	!	!	!	!	!	!	!LO:TX:a:t=Solo	!	!
.	.	.	.	.	.	.	.	.	.	.	.	.	.	.	.	.	.	.	.	.	.	.	.	.	.	8F\L	.	.	.	8ff\L	.	(>8fff\L
4r	.	.	4r	.	4r	.	4r	.	4r	.	.	4r	.	.	4r	.	4r	.	.	4r	.	4r	.	4r	.	8B-\	.	.	.	8dd\	.	8ddd\
.	.	.	.	.	.	.	.	.	.	.	.	.	.	.	.	.	.	.	.	.	.	.	.	.	.	8d\J	.	.	.	8b-\J	.	8bb-\J)
!LO:LB:g=original	!	!	!	!	!	!	!	!	!	!	!	!	!	!	!	!	!	!	!	!	!	!	!	!	!	!LO:LB:g=original	!	!	!	!	!	!LO:LB:g=original
=9	=9	=9	=9	=9	=9	=9	=9	=9	=9	=9	=9	=9	=9	=9	=9	=9	=9	=9	=9	=9	=9	=9	=9	=9	=9	=9	=9	=9	=9	=9	=9	=9
!	!	!	!	!	!	!	!	!	!	!	!LO:DY:a	!	!	!LO:DY:a	!	!	!	!	!LO:DY:a	!	!	!	!	!	!	!	!	!	!	!	!LO:DY:a	!
4F\	.	.	4f\	.	4f/	.	4ee-\	.	(8.c\	De-	<	8.c\L	De-	>	(8.f\L	De-	(8.ee-\L	De-	>	4FF/	.	4f/	.	4cc\	.	4e-\	.	4f/	.	4a\	>	4ff\
.	.	.	.	.	.	.	.	.	16c\)	.	.	16A\Jk	.	.	16f\Jk	.	16cc\Jk)	.	]	.	.	.	.	.	.	.	.	.	.	.	.	.
8r	.	f	8r	.	8r	.	8r	.	4c\	-us	.	4e-\	-us	]	4f\)	-us	4a\	-us	.	4r	.	4r	.	4r	.	8r	.	8r	.	8r	]	8r
!	!	!	!	!	!	!	!	!LO:DY:t=for	!	!	!	!	!	!	!	!	!	!	!	!	!	!	!	!	!	!	!	!	!	!	!	!
8G-X\L	7_ 5_	.	8g-X\L	.	8cc\L	.	8f/L 8ee-	f	.	.	.	.	.	.	.	.	.	.	.	.	.	.	.	.	.	(8e-\L	.	8f/L	.	8a\L	.	8eee-\L
8G-\	.	.	8g-\	.	8cc\	.	8g-X/ 8ee-	.	4r	.	[	4r	.	.	4r	.	4r	.	.	4r	.	4r	.	4r	.	8c\	.	8g-X/	.	8a\	.	8eee-\
8G-\J	.	.	8g-\J	.	8cc\J	.	8g-/J 8ee-	.	.	.	.	.	.	.	.	.	.	.	.	.	.	.	.	.	.	8A\J)	.	8g-/J	.	8a\J	.	8eee-\J
!	!	!	!	!	!	!	!LO:LB:g=original	!	!	!	!	!	!	!	!	!	!	!	!	!	!	!	!	!	!	!	!	!	!	!	!	!
=10	=10	=10	=10	=10	=10	=10	=10	=10	=10	=10	=10	=10	=10	=10	=10	=10	=10	=10	=10	=10	=10	=10	=10	=10	=10	=10	=10	=10	=10	=10	=10	=10
!	!	!	!	!	!	!	!	!	!	!	!LO:DY:a	!	!	!LO:DY:a	!	!	!	!	!LO:DY:a	!	!	!	!	!	!	!	!	!	!	!	!	!
4F\	7_ 5_	p	4f\	.	4cc\	.	4ee-^\	.	8.c\	Sa-	<	8.c\	Sa-	<	8.f\	sa-	8.ee-\	Sa-	>	4FF/	.	4f/	.	4cc\	.	4F\	.	4f/	.	4a\	.	4eee-\
.	.	.	.	.	.	.	.	.	16c\	-ba-	.	16A\	-ba-	.	16f\	-ba-	16cc\	-ba-	]	.	.	.	.	.	.	.	.	.	.	.	.	.
8r	.	.	8r	.	8r	.	8r	.	4C/	-oth	.	4e-\	-oth	.	4f\	-oth	4a\	-oth	.	4r	.	4r	.	4r	.	8r	.	8r	.	8r	.	8r
8G-X\L	.	f	8g-X\L	.	8a\L	.	8f/L 8ee-	p	.	.	.	.	.	.	.	.	.	.	.	.	.	.	.	.	.	8e-\L	.	8f/L	.	8a\L	.	8eee-\L
8G-\	.	.	8g-\	.	8a\	.	8g-X/ 8ee-	.	4r	.	[	4r	.	[	4r	.	4r	.	.	4r	.	4r	.	4r	.	8c\	.	8g-X/	.	8a\	.	8eee-\
8G-\J	.	.	8g-\J	.	8a\J	.	8g-/J 8ee-	.	.	.	.	.	.	.	.	.	.	.	.	.	.	.	.	.	.	8A\J	.	8g-/J	.	8a\J	.	8eee-\J
!	!	!	!LO:LB:g=original	!	!	!	!	!	!	!	!	!	!	!	!	!	!	!	!	!	!	!	!	!	!	!	!	!	!	!	!	!
=11	=11	=11	=11	=11	=11	=11	=11	=11	=11	=11	=11	=11	=11	=11	=11	=11	=11	=11	=11	=11	=11	=11	=11	=11	=11	=11	=11	=11	=11	=11	=11	=11
!	!	!	!LO:TX:a:i:t=Dol(ce)	!	!	!	!	!	!LO:TX:a:t=2	!	!	!	!	!	!LO:TX:a:t=2	!	!	!	!	!LO:TX:a:t=1	!	!LO:TX:a:t=1	!	!LO:TX:a:t=1	!	!	!	!	!	!	!	!
4F\	7 5	p	8e-\L	.	(8e-/L	.	(8ee-\L	.	2.r	.	.	2.r	.	.	2.r	.	2.r	.	.	2.r	.	2.r	.	2.r	.	4F\	.	4f/	.	4a\	.	4eee-\
.	.	.	8Bn\	.	8Bn/	.	8bn\	.	.	.	.	.	.	.	.	.	.	.	.	.	.	.	.	.	.	.	.	.	.	.	.	.
4r	.	.	8c\	.	8c/	.	8cc\	.	.	.	.	.	.	.	.	.	.	.	.	.	.	.	.	.	.	4r	.	4r	.	4r	.	4r
.	.	.	8f#X\J	.	8f#X/	.	8ff#X\J	.	.	.	.	.	.	.	.	.	.	.	.	.	.	.	.	.	.	.	.	.	.	.	.	.
4r	.	.	8g\L	.	8g/	.	8gg\L)	.	.	.	.	.	.	.	.	.	.	.	.	.	.	.	.	.	.	4r	.	4r	.	4r	.	4r
.	.	.	8d\J	.	8d/J)	.	8dd\J	.	.	.	.	.	.	.	.	.	.	.	.	.	.	.	.	.	.	.	.	.	.	.	.	.
=12	=12	=12	=12	=12	=12	=12	=12	=12	=12	=12	=12	=12	=12	=12	=12	=12	=12	=12	=12	=12	=12	=12	=12	=12	=12	=12	=12	=12	=12	=12	=12	=12
!	!	!	!	!	!	!	!	!	!	!	!	!	!	!	!	!	!	!	!	!	!	!	!	!	!	!	!	!	!	!LO:TX:t=P:problem=brak uwzględnionej pauzy 4	!	!
4r	.	.	8.f\L	.	8.f/L	.	8.ff\L	.	2.r;	.	.	2.r;	.	.	2.r;	.	2.r;	.	.	4r	.	4r	.	4r	.	4F\	.	4r;	.	4ryy	.	8.fff\L
.	.	.	16en\Jk	.	16en/Jk	.	16een\Jk	.	.	.	.	.	.	.	.	.	.	.	.	.	.	.	.	.	.	.	.	.	.	.	.	16eeen\Jk
!	!	!	!	!	!	!	!	!	!	!	!	!	!	!	!	!	!	!	!	!LO:SIC:s=2g	!	!	!	!	!	!	!	!	!	!	!	!
2F;\	7:5	.	2e-X;\	.	2c;/ 2f	.	2ee-X;\	.	.	.	.	.	.	.	.	.	.	.	.	2AAt<;/	.	2f;/	.	2cc;\	.	2f;\	.	2cc;\	.	2ee-;\	.	2eee-X\
==	==	==	==	==	==	==	==	==	==	==	==	==	==	==	==	==	==	==	==	==	==	==	==	==	==	==	==	==	==	==	==	==
*-	*-	*-	*-	*-	*-	*-	*-	*-	*-	*-	*-	*-	*-	*-	*-	*-	*-	*-	*-	*-	*-	*-	*-	*-	*-	*-	*-	*-	*-	*-	*-	*-
!!!system-decoration: [(s1,s2,s3,s4)][(s5,s6)][(s7)][(s8,s9,s10,s11)][(s12,s13,s14)]s15
!!!RDF**kern: > = above
!!!RDF**kern: < = below
!!!ENC: Andrzej Gręziak
!!!END: 2020-07-02
!!!ENC: Natalia Wrzos
!!!END: 2022-02-21
!!!YEC: Copyright 2022 Narodowy Instytut Fryderyka Chopina (https://polishscores.org)
!!!YEM: License CC-BY-4.0 (https://creativecommons.org/licenses/by/4.0)
